!!!COM:	Johannes Ockeghem
!!!CDT:	~1425-1497/02/06
!!!OPR:	Missa L'homme arm&eacute;
!!!ONM:	4
!!!OTL:	Sanctus
!!!AGN:	Mass; Sanctus
!!!SCT:	Ock1008d
!!!SCA:	Ock1008d
!!!voices:	4
!!!voices-OPR:	4
**kern	**text	**kern	**text	**kern	**text	**kern	**text
*staff4	*staff4	*staff3	*staff3	*staff2	*staff2	*staff1	*staff1
*Ivox	*	*Ivox	*	*Ivox	*	*Ivox	*
*I"Bassus	*	*I"Tenor	*	*I"Altus	*	*I"Superius	*
*I'B	*	*I'T	*	*I'A	*	*I'S	*
*>[A,B,C,D,C]	*>[A,B,C,D,C]	*>[A,B,C,D,C]	*>[A,B,C,D,C]	*>[A,B,C,D,C]	*>[A,B,C,D,C]	*>[A,B,C,D,C]	*>[A,B,C,D,C]
*>A	*>A	*>A	*>A	*>A	*>A	*>A	*>A
*clefF4	*	*clefGv2	*	*clefGv2	*	*clefG2	*
*k[]	*	*k[]	*	*k[]	*	*k[]	*
*M3/1	*	*M3/1	*	*M3/1	*	*M3/1	*
*met(O)	*	*met(C.)	*	*met(O)	*	*met(O)	*
!!primary-mensuration: met(O)
*	*	*rscale:1/2	*	*	*	*	*
=1-	=1-	=1-	=1-	=1-	=1-	=1-	=1-
0G	Sanc-	0G	L'hom-	0d	Sanc-	0g	Sanc-
1G	-tus,	1G	-me	1e	-tus,	1g	-tus,
=2	=2	=2-	=2	=2	=2	=2	=2
1.F	Sanc-	0c	l'hom-	1.f	Sanc-	1.a	Sanc-
2G\	.	.	.	2e\	.	2g/	.
1A	.	1c	-me	1c	.	2.e/	.
.	.	.	.	.	.	4f/	.
=3	=3	=3	=3	=3	=3	=3	=3
1G	.	1B	l'hom-	1d	.	1g	.
0c	.	0A	-me'ar-	1e	.	1.a	.
.	.	.	.	1f	.	.	.
.	.	.	.	.	.	4g/	.
.	.	.	.	.	.	4a/	.
=4	=4	=4-	=4	=4	=4	=4	=4
0.d	.	0.G	-m&eacute;,	0g	-tus,	0b	-tus,
.	.	.	.	1r	.	1b	Sanc-
=5	=5	=5	=5	=5	=5	=5	=5
0D	-tus,	1d	l'hom-	0f	Sanc-	1a	.
.	.	1d	-me'ar-	.	.	2b\	.
.	.	.	.	.	.	1dd	.
1r	.	1G	-m&eacute;,	1g	.	.	.
.	.	.	.	.	.	2cc\	.
=6	=6	=6-	=6	=6	=6	=6	=6
1.D	Sanc-	1d	l'hom-	1f	-tus,	2b\	.
.	.	.	.	.	.	2.a/	.
.	.	1d	-me'ar-	1d	.	.	.
.	.	.	.	.	.	4g/	.
1F	.	.	.	.	.	2a/	.
.	.	1d	-m&eacute;	1r	.	2.f/	.
2G\	.	.	.	.	.	.	.
.	.	.	.	.	.	4e/	.
=7	=7	=7	=7	=7	=7	=7	=7
0.A	.	0.c	doibt	1.a	Sanc-	0.e	-tus,
.	.	.	.	2f\	.	.	.
.	.	.	.	1e	.	.	.
=8	=8	=8-	=8	=8	=8	=8	=8
0.D	.	1B	en	2d\	.	0.r	.
.	.	.	.	2.f\	.	.	.
.	.	0A	doub-	.	.	.	.
.	.	.	.	4e\	.	.	.
.	.	.	.	2f\	.	.	.
.	.	.	.	4g\	.	.	.
.	.	.	.	4f\	.	.	.
.	.	.	.	4e\	.	.	.
.	.	.	.	4d\	.	.	.
=9	=9	=9	=9	=9	=9	=9	=9
0.E	.	0G	-ter,	2c\	.	1r	.
.	.	.	.	1e	.	.	.
.	.	.	.	.	.	1r	.
.	.	.	.	2d\	.	.	.
.	.	1r	.	2B\	.	1g	Sanc-
.	.	.	.	2c#i\	.	.	.
=10	=10	=10-	=10	=10	=10	=10	=10
0.D	-tus,	1d	doibt	2.d\	-tus,	1.f	.
.	.	.	.	4c\	.	.	.
.	.	1d	en	0A	.	.	.
.	.	.	.	.	.	2g/	.
.	.	1d	doub-	.	.	2.a/	.
.	.	.	.	.	.	4g/	.
=11	=11	=11	=11	=11	=11	=11	=11
0B-	Sanc-	0G	-ter.	1r	.	2e/	-tus,
.	.	.	.	.	.	2d/	.
.	.	.	.	1d	Sanc-	2r	.
.	.	.	.	.	.	2g/	Sanc-
1A	-tus,	1r	.	1c	.	2a/	.
.	.	.	.	.	.	2cc\	.
=12	=12	=12-	=12	=12	=12	=12	=12
2.G\	Sanc-	0g	On	1.d	.	1b	.
4A\	.	.	.	.	.	.	.
2Bni\	.	.	.	.	.	1g	.
1c	.	.	.	2e\	.	.	.
.	.	1g	a	1c	-tus,	1cc	.
2e\	.	.	.	.	.	.	.
=13	=13	=13	=13	=13	=13	=13	=13
2.d\	.	0f	fait	1r	.	2b\	-tus,
.	.	.	.	.	.	2a/	.
4c\	.	.	.	.	.	.	.
2B\	.	.	.	1r	.	2r	.
2G\	.	.	.	.	.	2dd\	Do-
1A	.	1f	par-	1c	Sanc-	2cc\	.
.	.	.	.	.	.	2a/	.
=14	=14	=14-	=14	=14	=14	=14	=14
0G	-tus,	0g	-tout	1d	.	1.b	.
.	.	.	.	1B	.	.	.
.	.	.	.	.	.	1g	.
1C	Do-	1e	cri-	2.c\	.	.	.
.	.	.	.	.	.	2cc\	.
.	.	.	.	4B\	.	.	.
=15	=15	=15	=15	=15	=15	=15	=15
1G	.	0.d	-er,	1G	-tus,	2b\	.
.	.	.	.	.	.	2g/	.
2F\	.	.	.	1r	.	2a/	.
2.G\	.	.	.	.	.	2g/	.
.	.	.	.	1g	Do-	1dd	.
4A\	.	.	.	.	.	.	.
2B\	.	.	.	.	.	.	.
=16	=16	=16-	=16	=16	=16	=16	=16
2A\	.	0.r	Sanc-	2.a\	.	2cc\	.
1d	.	.	.	.	.	1b	.
.	.	.	.	4g\	.	.	.
.	.	.	.	4f\	.	.	.
.	.	.	.	4e\	.	.	.
2c\	.	.	.	1e	.	1a	.
1B	-mi-	.	.	.	.	.	.
.	.	.	.	2d\	-mi-	2g#i/	-mi-
=17	=17	=17	=17	=17	=17	=17	=17
0.A	-nus	0.r	.	0e	-nus	1.a	-nus
.	.	.	.	.	.	1cc	De-
.	.	.	.	1f	De-	.	.
.	.	.	.	.	.	2dd\	.
=18	=18	=18-	=18	=18	=18	=18	=18
0.r	.	0g	-que	1e	.	1.ee	.
.	.	.	.	0c	.	.	.
.	.	.	.	.	.	4dd\	.
.	.	.	.	.	.	4ee\	.
.	.	1g	chas-	.	.	2cc\	.
.	.	.	.	.	.	2a/	.
=19	=19	=19	=19	=19	=19	=19	=19
0.r	.	0f	-cun	1d	.	2b\	.
.	.	.	.	.	.	1dd	.
.	.	.	.	2B\	.	.	.
.	.	.	.	2c\	.	2cc\	.
.	.	1f	se	1d	.	2a/	.
.	.	.	.	.	.	2b\	.
=20	=20	=20-	=20	=20	=20	=20	=20
0.C	De-	0g	vieg-	0.c	-us	1cc	-us
.	.	.	.	.	.	1r	.
.	.	1e	-ne'ar-	.	.	1cc	Sa-
=21	=21	=21	=21	=21	=21	=21	=21
0.G	.	0d	-m&eacute;	0.B	Sa-	0dd	.
.	.	1g	d'un	.	.	1ee	.
=22	=22	=22-	=22	=22	=22	=22	=22
2.F\	.	0a	hau-	1A	.	1ff	.
4E\	.	.	.	.	.	.	.
0C	-us	.	.	0c	.	1.ee	.
.	.	1g	-bre-	.	.	.	.
.	.	.	.	.	.	2dd\	.
=23	=23	=23	=23	=23	=23	=23	=23
1D	Sa-	1f	-gon	1A	.	1dd	.
2.E\	.	0e	de	2.G/	.	2.cc\	.
4F\	.	.	.	4A/	.	4b\	.
2G\	.	.	.	2B\	.	1g	.
2A\	.	.	.	2c\	.	.	.
=24	=24	=24-	=24	=24	=24	=24	=24
2.B\	.	0.d	fer.	2d\	.	2f/	.
.	.	.	.	2.G/	.	2.b-\	.
4c\	.	.	.	.	.	.	.
2.d\	.	.	.	.	.	.	.
.	.	.	.	4A/	.	4a/	.
.	.	.	.	2.B\	.	2.dd\	.
4e\	.	.	.	.	.	.	.
2.f\	.	.	.	.	.	.	.
.	.	.	.	4c\	.	4cc\	.
.	.	.	.	4d\	.	2cc\	.
4e\	.	.	.	4e\	.	.	.
=25	=25	=25	=25	=25	=25	=25	=25
2d\	.	0.r	.	2f\	.	2bni\	.
2c\	.	.	.	1e	.	2.a/	.
2G\	.	.	.	.	.	.	.
.	.	.	.	.	.	4g/	.
2B\	.	.	.	1d	.	1g	.
1A	-ba-	.	.	.	.	.	.
.	.	.	.	2c\	-ba-	2f#i/	-ba-
=26	=26	=26-	=26	=26	=26	=26	=26
!	!	!LO:N:vis=00	!	!	!	!	!
0.G\l	-oth.	0.dl	fer.	0.d\l	-oth.	0.g/l	-oth.
*	*	*rscale:1	*	*	*	*	*
!!LO:LB:i:g=z
=27||	=27||	=27||	=27||	=27||	=27||	=27||	=27||
*>B	*>B	*>B	*>B	*>B	*>B	*>B	*>B
*clefF4	*	*clefGv2	*	*clefGv2	*	*clefG2	*
*k[]	*	*k[]	*	*k[]	*	*k[]	*
*M3/1	*	*M3/1	*	*M3/1	*	*M3/1	*
*met(O)	*	*met(C.)	*	*met(O)	*	*met(O)	*
!!primary-mensuration: met(O)
!!section: Pleni
!!!OMD: Pleni
!	!	!	!	!	!	!	!
0.r	.	0.r	.	1G	Ple-	0.r	.
.	.	.	.	2A/	.	.	.
.	.	.	.	1B	.	.	.
.	.	.	.	2c\	.	.	.
=28	=28	=28	=28	=28	=28	=28	=28
2r	.	0.r	.	2.A/	-ni	0.r	.
2D\	Ple-	.	.	.	.	.	.
.	.	.	.	4B\	.	.	.
2E\	.	.	.	2c\	.	.	.
2D\	.	.	.	1d	sunt	.	.
2F\	.	.	.	.	.	.	.
2G\	.	.	.	2e\	.	.	.
=29	=29	=29	=29	=29	=29	=29	=29
0A	-ni	0.r	.	2.c\	cae-	0.r	.
.	.	.	.	4d\	.	.	.
.	.	.	.	2e\	.	.	.
.	.	.	.	1f	.	.	.
1B-i	sunt	.	.	.	.	.	.
.	.	.	.	4e\	.	.	.
.	.	.	.	4d\	.	.	.
=30	=30	=30	=30	=30	=30	=30	=30
4A\	cae-	0.r	.	1c	.	0.r	.
4G\	.	.	.	.	.	.	.
2A\	.	.	.	.	.	.	.
2Bni\	.	.	.	2d\	.	.	.
1d	.	.	.	2f\	.	.	.
.	.	.	.	1e	-li	.	.
2c#i\	.	.	.	.	.	.	.
=31	=31	=31	=31	=31	=31	=31	=31
2d\	.	0.r	.	2r	.	0.r	.
2G\	.	.	.	2.d\	Ple-	.	.
2d\	.	.	.	.	.	.	.
.	.	.	.	4G/	.	.	.
2B\	.	.	.	2d\	.	.	.
1A	.	.	.	2e\	.	.	.
.	.	.	.	2f\	.	.	.
=32	=32	=32	=32	=32	=32	=32	=32
1G	-li	0.r	.	2g\	.	0.r	.
.	.	.	.	2e\	.	.	.
2r	.	.	.	2d\	-ni	.	.
2G\	Ple-	.	.	2r	.	.	.
2A\	.	.	.	2c\	sunt	.	.
2B\	.	.	.	2d\	.	.	.
=33	=33	=33	=33	=33	=33	=33	=33
2c\	.	0.r	.	2e\	.	0.r	.
2A\	.	.	.	1f	cae-	.	.
1B-i	.	.	.	.	.	.	.
.	.	.	.	2d\	.	.	.
2G\	.	.	.	2.d\	.	.	.
[2F\	-ni	.	.	.	.	.	.
.	.	.	.	4e\	.	.	.
=34	=34	=34	=34	=34	=34	=34	=34
2F\]	.	0.r	.	4d\	.	0.r	.
.	.	.	.	8c\L	.	.	.
.	.	.	.	8B\J	.	.	.
2r	.	.	.	2A/	.	.	.
2F\	sunt	.	.	1d	.	.	.
2G\	.	.	.	.	.	.	.
2A\	.	.	.	2c\	.	.	.
[2B-\	cae-	.	.	2B-i\	.	.	.
=35	=35	=35	=35	=35	=35	=35	=35
4B-\]	.	0.r	.	2G/	.	0.r	.
4G\	.	.	.	.	.	.	.
2.A\	.	.	.	2F/	.	.	.
.	.	.	.	1c	.	.	.
4G\	.	.	.	.	.	.	.
4F\	.	.	.	.	.	.	.
4E\	.	.	.	.	.	.	.
2D\	.	.	.	1d	.	.	.
[2G\	.	.	.	.	.	.	.
=36	=36	=36	=36	=36	=36	=36	=36
2G\]	.	0.r	.	2B-i\	.	0.r	.
2F\	.	.	.	1c	.	.	.
2E-\	.	.	.	.	.	.	.
2C/	.	.	.	2e-i\	.	.	.
2BB-i/	.	.	.	1d	-li	.	.
[2F\	.	.	.	.	.	.	.
=37	=37	=37	=37	=37	=37	=37	=37
2F\]	.	0.r	.	2c\	cae-	0.r	.
2G\	.	.	.	2B-i\	.	.	.
2D\	.	.	.	2A/	.	.	.
2F\	.	.	.	2d\	.	.	.
2Eni\	.	.	.	4c\	.	.	.
.	.	.	.	2B-i\	.	.	.
4D\	.	.	.	.	.	.	.
4E\	.	.	.	8A/L	.	.	.
.	.	.	.	8G/J	.	.	.
=38	=38	=38	=38	=38	=38	=38	=38
2D\	.	0.r	.	2F/	.	0.r	.
2G\	.	.	.	2B-i\	.	.	.
2A\	.	.	.	2c\	.	.	.
1G	.	.	.	2G/	.	.	.
.	.	.	.	1A	.	.	.
2F#i\	.	.	.	.	.	.	.
=39	=39	=39	=39	=39	=39	=39	=39
0G	-li	0.r	.	1G	-li	1r	.
.	.	.	.	1r	.	1r	.
1r	.	.	.	1B-i	et	1g	et
=40	=40	=40	=40	=40	=40	=40	=40
0.r	.	0.r	.	1A	ter-	1f	ter-
.	.	.	.	2B-i\	.	2g/	.
.	.	.	.	2A/	.	2.a/	.
.	.	.	.	1c	.	.	.
.	.	.	.	.	.	4g/	.
.	.	.	.	.	.	2e/	-ra
=41	=41	=41	=41	=41	=41	=41	=41
0.r	.	0.r	.	1F	.	2r	.
.	.	.	.	.	.	2.a/	ter-
.	.	.	.	1f	.	.	.
.	.	.	.	.	.	4d/	.
.	.	.	.	.	.	2a/	.
.	.	.	.	2e\	-ra	2g/	.
.	.	.	.	2d\	.	2f/	.
=42	=42	=42	=42	=42	=42	=42	=42
1r	.	0.r	.	2r	.	1e	.
.	.	.	.	2g\	et	.	.
1D	et	.	.	2f\	.	1d	-ra
.	.	.	.	1a	ter-	.	.
2F\	.	.	.	.	.	1r	.
2G\	.	.	.	2g\	.	.	.
=43	=43	=43	=43	=43	=43	=43	=43
1B-	ter-	0.r	.	2f\	.	1d	et
.	.	.	.	4e\	.	.	.
.	.	.	.	4d\	.	.	.
1A	.	.	.	2e\	.	1c	ter-
.	.	.	.	2A/	.	.	.
2G\	.	.	.	2d\	.	1d	-ra
[2d\	.	.	.	2f\	.	.	.
=44	=44	=44	=44	=44	=44	=44	=44
2d\]	.	0.r	.	1e	.	1A	.
2c#i\	.	.	.	.	.	.	.
1d	-ra	.	.	1d	-ra	2.a/	et
.	.	.	.	.	.	4b\	.
1r	.	.	.	2r	.	2cc\	.
.	.	.	.	[2d\	et	[2dd\	ter-
=45	=45	=45	=45	=45	=45	=45	=45
0.r	.	0.r	.	4d\]	.	4dd\]	.
.	.	.	.	4e\	.	4cc\	.
.	.	.	.	2f\	.	4b\	.
.	.	.	.	.	.	4a/	.
.	.	.	.	2g\	ter-	2g/	.
.	.	.	.	2c\	.	2cc\	.
.	.	.	.	2e\	.	2b\	.
.	.	.	.	2f\	.	[2a/	.
=46	=46	=46	=46	=46	=46	=46	=46
1r	.	0.r	.	1d	.	4a/]	.
.	.	.	.	.	.	4g/	.
.	.	.	.	.	.	2f/	.
1r	.	.	.	0c	-ra	1e	-ra
1C	glo-	.	.	.	.	2r	.
.	.	.	.	.	.	2e/	glo-
=47	=47	=47	=47	=47	=47	=47	=47
1BB	-ri-	0.r	.	1d	glo-	2d/	.
.	.	.	.	.	.	2f/	.
1C	-a	.	.	2G/	.	2.e/	.
.	.	.	.	2c\	.	.	.
.	.	.	.	.	.	4c/	.
1r	.	.	.	2B\	.	2d/	.
.	.	.	.	2c\	.	2c/	.
=48	=48	=48	=48	=48	=48	=48	=48
1r	.	0.r	.	2A/	.	2.f/	-ri-
.	.	.	.	2B\	.	.	.
.	.	.	.	.	.	4g/	.
1C	glo-	.	.	2c\	.	1e	-a
.	.	.	.	2d\	.	.	.
1D	.	.	.	2.B\	.	1r	.
.	.	.	.	4A/	.	.	.
=49	=49	=49	=49	=49	=49	=49	=49
1C	.	0.r	.	3c\	.	0.r	.
.	.	.	.	3d\	.	.	.
.	.	.	.	3e\	.	.	.
1G	.	.	.	3c\	.	.	.
.	.	.	.	3%2d	.	.	.
1F#i	-ri-	.	.	3B\	-ri-	.	.
.	.	.	.	3%2A	.	.	.
=50	=50	=50	=50	=50	=50	=50	=50
1G	-a	0.r	.	1G	-a	2r	.
.	.	.	.	.	.	2g/	tu-
1r	.	.	.	2r	.	2a/	.
.	.	.	.	2F/	tu-	2.cc\	.
1E	tu-	.	.	1G	.	.	.
.	.	.	.	.	.	4b\	.
.	.	.	.	.	.	[2b\	.
=51	=51	=51	=51	=51	=51	=51	=51
1F	.	0.r	.	1A	.	4b\]	.
.	.	.	.	.	.	4a/	.
.	.	.	.	.	.	1a	.
1G	.	.	.	1B-i	.	.	.
.	.	.	.	.	.	2g/	.
1D	.	.	.	2.A/	.	1a	-a,
.	.	.	.	4Bni\	.	.	.
=52	=52	=52	=52	=52	=52	=52	=52
2A\	.	0.r	.	2c\	.	2r	.
2F\	.	.	.	1d	.	2a/	tu-
2G\	.	.	.	.	.	2b\	.
2A\	.	.	.	2c\	.	2cc\	.
1D	-a,	.	.	1f	.	1dd	.
=53	=53	=53	=53	=53	=53	=53	=53
1r	.	0.r	.	2e\	.	2cc\	.
.	.	.	.	2d\	.	1b-	.
1G	tu-	.	.	4e\	.	.	.
.	.	.	.	4d\	.	.	.
.	.	.	.	4c\	.	4a/	.
.	.	.	.	4B\	.	4g/	.
2D\	.	.	.	2A/	.	2f/	.
2G\	.	.	.	2B\	.	2g/	.
=54	=54	=54	=54	=54	=54	=54	=54
2F\	.	0.r	.	2A/	.	2.a/	.
2D\	.	.	.	1d	.	.	.
.	.	.	.	.	.	2f/	.
1A	.	.	.	.	.	.	.
.	.	.	.	.	.	4d/	.
.	.	.	.	2c\	.	2e/	.
2B-i\	.	.	.	2d\	.	1d	.
[2G\	.	.	.	[2B-i\	.	.	.
=55	=55	=55	=55	=55	=55	=55	=55
2G\]	.	0.r	.	2B-\]	.	0.dl	-a.
2F\	.	.	.	2A/	.	.	.
1G	.	.	.	1B-i	.	.	.
1Dl	-a.	.	.	1Al	-a.	.	.
!!LO:LB:i:g=z
=56||	=56||	=56||	=56||	=56||	=56||	=56||	=56||
*>C	*>C	*>C	*>C	*>C	*>C	*>C	*>C
*clefF4	*	*clefGv2	*	*clefGv2	*	*clefG2	*
*k[]	*	*k[]	*	*k[]	*	*k[]	*
*M2/1	*	*M2/1	*	*M2/1	*	*M2/1	*
*met(C|)	*	*met(C.)	*	*met(C|)	*	*met(C|)	*
!!primary-mensuration: met(C|)
*	*	*rscale:1/4	*	*	*	*	*
!!section: Osanna
!!!OMD: Osanna
[0B-i	O-	0r	.	[0d	O-	[0g	O-
=57	=57	=57-	=57	=57	=57	=57	=57
!	!	!LO:N:vis=1	!	!	!	!	!
0B-]	.	[y0G	L'hom-	1d]	.	1g]	.
.	.	.	.	[1g	.	1e	.
=58	=58	=58-	=58	=58	=58	=58	=58
[0B-i	-san-	0G]yy	.	2g\]	.	1.d	.
.	.	.	.	2f\	.	.	.
.	.	.	.	[1d	.	.	.
.	.	.	.	.	.	[2g/	.
=59	=59	=59-	=59	=59	=59	=59	=59
0B-]	.	0G	-me	2d\]	.	2g/]	.
.	.	.	.	2c\	.	2a/	.
.	.	.	.	1d	.	2g/	.
.	.	.	.	.	.	4f/	.
.	.	.	.	.	.	4g/	.
=60	=60	=60-	=60	=60	=60	=60	=60
!	!	!LO:N:vis=1	!	!	!	!	!
0A	.	[y0c	l'hom-	0e	-san-	[0a	-san-
=61	=61	=61-	=61	=61	=61	=61	=61
1F	.	0c]yy	.	1f	.	1a]	.
1E	.	.	.	[1g	.	1g	.
=62	=62	=62	=62	=62	=62	=62	=62
0C	-na,	0c	-me	2g\]	.	1e	.
.	.	.	.	2e\	.	.	.
.	.	.	.	[1e	.	[1a	.
=63	=63	=63-	=63	=63	=63	=63	=63
0r	.	0B	l'hom-	2e\]	.	2a/]	.
.	.	.	.	2d\	.	2g/	.
.	.	.	.	[1d	.	[1g	.
=64	=64	=64-	=64	=64	=64	=64	=64
0r	.	0A	-me'ar-	2d\]	.	2g/]	.
.	.	.	.	2c\	.	2f#i/	.
.	.	.	.	2c\	.	2f#i/	.
.	.	.	.	2B\	.	4e/	.
.	.	.	.	.	.	4f#i/	.
=65	=65	=65-	=65	=65	=65	=65	=65
!	!	!LO:N:vis=1	!	!	!	!	!
0r	.	[y0G	-m&eacute;,	[0d	-na,	0g	-na,
=66	=66	=66-	=66	=66	=66	=66	=66
0Bni	o-	0G]yy	.	0d]	.	1d	o-
.	.	.	.	.	.	1g	.
=67	=67	=67-	=67	=67	=67	=67	=67
0A	.	0r	.	0r	.	1f	-san-
.	.	.	.	.	.	[1e	.
=68	=68	=68	=68	=68	=68	=68	=68
!	!	!LO:N:vis=1.	!	!	!	!	!
1c	-san-	0r	.	0r	.	2e/]	.
.	.	.	.	.	.	2f/	.
1B	.	.	.	.	.	1g	.
=69	=69	=69-	=69	=69	=69	=69	=69
0d	.	0ryy	.	0r	.	1f	.
.	.	.	.	.	.	[1a	.
=70	=70	=70-	=70	=70	=70	=70	=70
0A	.	0ryy	.	0r	.	1a]	.
.	.	.	.	.	.	[1e	.
=71	=71	=71-	=71	=71	=71	=71	=71
!	!	!LO:N:vis=1.	!	!	!	!	!
0c	.	0r	.	0r	.	1e]	.
.	.	.	.	.	.	1g	.
=72	=72	=72-	=72	=72	=72	=72	=72
0d	.	0ryy	.	0r	.	1f	.
.	.	.	.	.	.	[1a	.
=73	=73	=73-	=73	=73	=73	=73	=73
1e	.	0ryy	.	0r	.	2a/]	.
.	.	.	.	.	.	2g/	.
[1d	.	.	.	.	.	1f	.
=74	=74	=74	=74	=74	=74	=74	=74
!	!	!LO:N:vis=1	!	!	!	!	!
1d]	.	0r	.	0r	.	0e	.
1c#i	.	.	.	.	.	.	.
=75	=75	=75-	=75	=75	=75	=75	=75
0d	.	0ryy	.	0B-	o-	0d	-na,
=76	=76	=76-	=76	=76	=76	=76	=76
[0D	-na,	0d	l'hom-	0A	.	1r	.
.	.	.	.	.	.	[1f	o-
=77	=77	=77-	=77	=77	=77	=77	=77
0D]	.	0d	-me'ar-	1.f	-san-	2f/]	.
.	.	.	.	.	.	2g/	.
.	.	.	.	.	.	1a	.
.	.	.	.	4e\	.	.	.
.	.	.	.	4d\	.	.	.
=78	=78	=78-	=78	=78	=78	=78	=78
0r	.	0G	-m&eacute;,	0g	.	1.b-i	-san-
.	.	.	.	.	.	4a/	.
.	.	.	.	.	.	4b-i\	.
=79	=79	=79-	=79	=79	=79	=79	=79
1F	o-	0r	.	0a	.	0cc	.
1A	.	.	.	.	.	.	.
=80	=80	=80	=80	=80	=80	=80	=80
!	!	!LO:N:vis=1.	!	!	!	!	!
1G	-san-	0r	.	1d	.	1dd	.
[1c	.	.	.	1c	.	[1ee	.
=81	=81	=81-	=81	=81	=81	=81	=81
1c]	.	0ryy	.	1g	.	2ee\]	.
.	.	.	.	.	.	2dd\	.
1d	.	.	.	1f	.	[1dd	.
=82	=82	=82-	=82	=82	=82	=82	=82
0A	.	0ryy	.	0e	.	1dd]	.
.	.	.	.	.	.	1cc#i	.
=83	=83	=83-	=83	=83	=83	=83	=83
1B-i	.	0r	.	0d	-na,	0dd	-na,
[1G	.	.	.	.	.	.	.
=84	=84	=84-	=84	=84	=84	=84	=84
1G]	.	0d	l'hom-	1B-i	o-	0r	.
1F	.	.	.	1A	.	.	.
=85	=85	=85-	=85	=85	=85	=85	=85
0G	.	0d	-me'ar-	0B-i	-san-	0g	o-
=86	=86	=86	=86	=86	=86	=86	=86
0D	-na,	0d	-m&eacute;	[0A	-na,	0f	-san-
=87	=87	=87-	=87	=87	=87	=87	=87
!	!	!LO:N:vis=1	!	!	!	!	!
0r	.	[y0c	doibt	0A]	.	0e	-na,
=88	=88	=88-	=88	=88	=88	=88	=88
0F	o-	0c]yy	.	0f	in	1r	.
.	.	.	.	.	.	1a	in
=89	=89	=89-	=89	=89	=89	=89	=89
0G	-san-	0B	en	1e	ex-	2g/	ex-
.	.	.	.	.	.	1g	-cel-
.	.	.	.	[1d	-cel-	.	.
.	.	.	.	.	.	4f/	.
.	.	.	.	.	.	4e/	.
=90	=90	=90-	=90	=90	=90	=90	=90
!	!	!LO:N:vis=1	!	!	!	!	!
0D	-na,	[y0A	doub-	1d]	.	0f	.
.	.	.	.	1d	.	.	.
=91	=91	=91-	=91	=91	=91	=91	=91
1r	.	0A]yy	.	1e	.	1cc	.
1c	in	.	.	1f	.	1a	.
=92	=92	=92	=92	=92	=92	=92	=92
1d	ex-	0G	-ter,	0g	-sis,	1b	.
1B	.	.	.	.	.	1dd	.
=93	=93	=93-	=93	=93	=93	=93	=93
1c	-cel-	0A	in	1e	in	1cc	.
[1F	.	.	.	1c	.	[1a	-sis,
=94	=94	=94-	=94	=94	=94	=94	=94
1F]	.	0c	.	0f	.	1a]	.
1A	.	.	.	.	.	1a	in
=95	=95	=95-	=95	=95	=95	=95	=95
1G	.	1d	ex-	1.g	ex-	1b	ex-
!	!	!LO:N:vis=1	!	!	!	!	!
[1c	-sis,	[y1e	-cel-	.	.	[1cc	-cel-
.	.	.	.	[2a\	-cel-	.	.
=96	=96	=96-	=96	=96	=96	=96	=96
1c]	.	1e]yy	.	2a\]	.	1cc]	.
.	.	.	.	2g\	.	.	.
2r	.	1d	.	2f\	.	1b	.
[2G\	in	.	.	4g\	.	.	.
.	.	.	.	4f\	.	.	.
=97	=97	=97-	=97	=97	=97	=97	=97
2G\]	.	2e\	.	4e\	.	1g	.
.	.	.	.	4d\	.	.	.
2B\	ex-	1g	.	1d	.	.	.
1A	-cel-	.	.	.	.	1a	.
.	.	2f#i\	.	2c\	.	.	.
=98	=98	=98	=98	=98	=98	=98	=98
1G	-sis,	1g	.	1.d	.	1b	.
2r	.	2f\	.	.	.	2a/	.
!	!	!LO:N:vis=2	!	!	!	!	!
[2G\	in	[y2e\	.	[2B\	.	[2g/	.
=99	=99	=99-	=99	=99	=99	=99	=99
2G\]	.	2e\]yy	.	2B\]	.	4g/]	.
.	.	.	.	.	.	4f/	.
2D\	.	1d	.	2A/	.	2f/	.
2E\	.	.	.	1G	-sis,	2.e/	.
2F\	.	2c\	.	.	.	.	.
.	.	.	.	.	.	4d/	.
=100	=100	=100-	=100	=100	=100	=100	=100
1G	.	1B	.	1r	.	0d	-sis,
1F	.	1A	.	1d	in	.	.
=101	=101	=101-	=101	=101	=101	=101	=101
1E	.	2G/	.	1e	.	1g	in
.	.	1.c	.	.	.	.	.
1A	ex-	.	.	1f	ex-	1a	ex-
=102	=102	=102-	=102	=102	=102	=102	=102
0G	-cel-	1d	.	1g	-cel-	2b\	-cel-
.	.	.	.	.	.	2.g/	.
.	.	1B	.	1e	.	.	.
.	.	.	.	.	.	4f/	.
.	.	.	.	.	.	2g/	.
=103	=103	=103-	=103	=103	=103	=103	=103
0D	.	0A	.	0d	.	2a/	.
.	.	.	.	.	.	1f#i	.
.	.	.	.	.	.	4e/	.
.	.	.	.	.	.	4f#i/	.
=104	=104	=104	=104	=104	=104	=104	=104
0Gl	-sis.	0Gl	-sis.	0dl	-sis.	0gl	-sis.
*	*	*rscale:1	*	*	*	*	*
!!LO:TX:rj:i:t=fine
!!LO:LB:i:g=z
=105||	=105||	=105||	=105||	=105||	=105||	=105||	=105||
*>D	*>D	*>D	*>D	*>D	*>D	*>D	*>D
*clefF4	*	*clefGv2	*	*clefGv2	*	*clefG2	*
*k[]	*	*k[]	*	*k[]	*	*k[]	*
*M2/1	*	*M2/1	*	*M2/1	*	*M2/1	*
*met(C)	*	*met(C.)	*	*met(C)	*	*met(C|)	*
!!primary-mensuration: met(C)
!!section: Benedictus
!!!OMD: Benedictus
0r	.	0r	.	0G	Be-	1.g	Be-
.	.	.	.	.	.	2e/	.
=106	=106	=106	=106	=106	=106	=106	=106
0r	.	0r	.	1A	.	2f/	.
.	.	.	.	.	.	4e/	.
.	.	.	.	.	.	4f/	.
.	.	.	.	1G	-ne-	1g	-ne-
=107	=107	=107	=107	=107	=107	=107	=107
0r	.	0r	.	0F	-dic-	2a/	-dic-
.	.	.	.	.	.	2b\	.
.	.	.	.	.	.	2cc\	.
.	.	.	.	.	.	2dd\	.
=108	=108	=108	=108	=108	=108	=108	=108
0r	.	0r	.	1G	.	2.b\	.
.	.	.	.	.	.	4g/	.
.	.	.	.	1c	.	2a/	.
.	.	.	.	.	.	[2g/	.
=109	=109	=109	=109	=109	=109	=109	=109
0r	.	0r	.	1d	.	2g/]	.
.	.	.	.	.	.	2f/	.
.	.	.	.	1e	.	2e/	.
.	.	.	.	.	.	[2c/	.
=110	=110	=110	=110	=110	=110	=110	=110
0r	.	0r	.	1g	.	2c/]	.
.	.	.	.	.	.	2e/	.
.	.	.	.	2f\	.	2d/	.
.	.	.	.	2e\	.	[2g/	.
=111	=111	=111	=111	=111	=111	=111	=111
0r	.	0r	.	1c	.	1g]	.
.	.	.	.	2f\	.	2a/	.
.	.	.	.	2e\	.	2cc\	.
=112	=112	=112	=112	=112	=112	=112	=112
0r	.	0r	.	1g	.	2b\	.
.	.	.	.	.	.	2.dd\	.
.	.	.	.	1f	.	.	.
.	.	.	.	.	.	4cc\	.
.	.	.	.	.	.	4a/	.
.	.	.	.	.	.	4cc\	.
=113	=113	=113	=113	=113	=113	=113	=113
0r	.	0r	.	2g\	.	2.b\	.
.	.	.	.	1c	.	.	.
.	.	.	.	.	.	4g/	.
.	.	.	.	.	.	2a/	.
.	.	.	.	2B\	.	[2g/	.
=114	=114	=114	=114	=114	=114	=114	=114
0r	.	0r	.	1A	.	2g/]	.
.	.	.	.	.	.	2f#i/	.
.	.	.	.	2G/	.	1g	-tus,
.	.	.	.	[2c\	.	.	.
=115	=115	=115	=115	=115	=115	=115	=115
0r	.	0r	.	4c\]	.	2a/	be-
.	.	.	.	4d\	.	.	.
.	.	.	.	4e\	.	2cc\	.
.	.	.	.	4f\	.	.	.
.	.	.	.	2d\	.	2b\	.
.	.	.	.	2g\	.	2g/	.
=116	=116	=116	=116	=116	=116	=116	=116
0r	.	0r	.	2f\	.	2a/	.
.	.	.	.	2g\	.	2g/	.
.	.	.	.	2a\	.	2f/	.
.	.	.	.	[2g\	.	2g/	.
=117	=117	=117	=117	=117	=117	=117	=117
0r	.	0r	.	2g\]	.	1a	-ne-
.	.	.	.	2f#i\	.	.	.
.	.	.	.	1g	-tus,	2.g/	-dic-
.	.	.	.	.	.	4e/	.
=118	=118	=118	=118	=118	=118	=118	=118
0r	.	0r	.	2a\	be-	2f/	.
.	.	.	.	1g	.	2e/	.
.	.	.	.	.	.	1c	.
.	.	.	.	2e\	-ne-	.	.
=119	=119	=119	=119	=119	=119	=119	=119
0r	.	0r	.	2f\	-dic-	2d/	.
.	.	.	.	2g\	.	2B/	.
.	.	.	.	1a	.	2A/	.
.	.	.	.	.	.	[2c/	.
=120	=120	=120	=120	=120	=120	=120	=120
0r	.	0r	.	1g	.	2c/]	.
.	.	.	.	.	.	2e/	.
.	.	.	.	2f\	.	2d/	.
.	.	.	.	2e\	.	[2c/	.
=121	=121	=121	=121	=121	=121	=121	=121
0r	.	0r	.	1c	.	4c/]	.
.	.	.	.	.	.	4d/	.
.	.	.	.	.	.	2e/	.
.	.	.	.	2G/	.	4d/	.
.	.	.	.	.	.	2g/	.
.	.	.	.	2c\	.	.	.
.	.	.	.	.	.	4a/	.
=122	=122	=122	=122	=122	=122	=122	=122
0r	.	0r	.	4d\	.	4b\	.
.	.	.	.	4e\	.	4g/	.
.	.	.	.	4f\	.	4a/	.
.	.	.	.	4g\	.	2g/	.
.	.	.	.	2e\	.	.	.
.	.	.	.	.	.	4cc\	.
.	.	.	.	2d\	.	4b\	.
.	.	.	.	.	.	[4dd\	.
=123	=123	=123	=123	=123	=123	=123	=123
0r	.	0r	.	2g\	.	4dd\]	.
.	.	.	.	.	.	2ee\	.
.	.	.	.	2c\	.	.	.
.	.	.	.	.	.	2cc\	.
.	.	.	.	4e\	.	.	.
.	.	.	.	4f\	.	4a/	.
.	.	.	.	2d\	.	2b\	.
=124	=124	=124	=124	=124	=124	=124	=124
1r	.	0r	.	1c	-tus,	1cc	-tus,
4A\	qui	.	.	1r	.	1r	.
8B\L	.	.	.	.	.	.	.
8c\J	.	.	.	.	.	.	.
4d\	.	.	.	.	.	.	.
4B\	.	.	.	.	.	.	.
=125	=125	=125	=125	=125	=125	=125	=125
2c\	ve-	0r	.	0r	.	1cc	qui
2A\	.	.	.	.	.	.	.
1G	-nit,	.	.	.	.	1b	.
=126	=126	=126	=126	=126	=126	=126	=126
2r	.	0r	.	0r	.	2cc\	ve-
2D\	qui	.	.	.	.	2.dd\	.
2E\	.	.	.	.	.	.	.
.	.	.	.	.	.	4cc\	.
2F\	.	.	.	.	.	2a/	.
=127	=127	=127	=127	=127	=127	=127	=127
2.G\	ve-	0r	.	0r	.	2g/	.
.	.	.	.	.	.	1dd	.
4A\	.	.	.	.	.	.	.
2B\	.	.	.	.	.	.	.
2c\	.	.	.	.	.	2cc\	.
=128	=128	=128	=128	=128	=128	=128	=128
2d\	.	0r	.	0r	.	1b	.
2e\	.	.	.	.	.	.	.
1f	.	.	.	.	.	2.a/	.
.	.	.	.	.	.	4f/	.
=129	=129	=129	=129	=129	=129	=129	=129
2e\	.	0r	.	0r	.	2g/	.
2d\	.	.	.	.	.	1a	.
4e\	.	.	.	.	.	.	.
4d\	.	.	.	.	.	.	.
4c\	.	.	.	.	.	2b\	.
4B\	.	.	.	.	.	.	.
=130	=130	=130	=130	=130	=130	=130	=130
2A\	.	0r	.	0r	.	2cc\	.
2d\	.	.	.	.	.	4b\	.
.	.	.	.	.	.	2a/	.
2c\	.	.	.	.	.	.	.
.	.	.	.	.	.	4g/	.
2d\	.	.	.	.	.	2f/	.
=131	=131	=131	=131	=131	=131	=131	=131
2B\	.	0r	.	1r	.	2g/	.
2c\	.	.	.	.	.	2e/	.
2d\	-nit,	.	.	2r	.	4d/	.
.	.	.	.	.	.	2f/	.
2r	.	.	.	2d\	qui	.	.
.	.	.	.	.	.	4g/	.
=132	=132	=132	=132	=132	=132	=132	=132
0r	.	0r	.	2c\	ve-	2e/	.
.	.	.	.	2d\	.	2d/	.
.	.	.	.	2e\	.	2A/	.
.	.	.	.	2g\	.	2B/	.
=133	=133	=133	=133	=133	=133	=133	=133
0r	.	0r	.	2f\	.	1d	-nit,
.	.	.	.	1a	.	.	.
.	.	.	.	.	.	2c/	ve-
.	.	.	.	4g\	.	2d/	.
.	.	.	.	4f\	.	.	.
=134	=134	=134	=134	=134	=134	=134	=134
0r	.	0r	.	2e\	.	2e/	.
.	.	.	.	2g\	.	2c/	.
.	.	.	.	2f\	.	2d/	.
.	.	.	.	[2d\	.	2f/	.
=135	=135	=135	=135	=135	=135	=135	=135
1r	.	0r	.	4d\]	.	1e	.
.	.	.	.	4e\	.	.	.
.	.	.	.	2c\	.	.	.
2.B-\	in	.	.	2.f\	.	1d	-nit,
4G\	.	.	.	4e\	.	.	.
=136	=136	=136	=136	=136	=136	=136	=136
4F\	.	0r	.	2d\	.	1r	.
4G\	.	.	.	.	.	.	.
2A\	.	.	.	2c\	.	.	.
4D\	no-	.	.	1B	.	2r	.
4E\	.	.	.	.	.	.	.
4F\	.	.	.	.	.	[2dd\	in
4G\	.	.	.	.	.	.	.
=137	=137	=137	=137	=137	=137	=137	=137
4F\	.	0r	.	1A	-nit	2dd\]	.
4G\	.	.	.	.	.	.	.
4A\	-mi-	.	.	.	.	2cc\	.
4F\	.	.	.	.	.	.	.
2G\	-ne	.	.	2r	.	2b\	no-
2r	.	.	.	2B\	in	2g/	-mi-
=138	=138	=138	=138	=138	=138	=138	=138
0r	.	0r	.	1A	.	2a/	-ne,
.	.	.	.	.	.	2.cc\	Do-
.	.	.	.	2G/	no-	.	.
.	.	.	.	.	.	4b\	.
.	.	.	.	[2c\	.	2a/	-mi-
=139	=139	=139	=139	=139	=139	=139	=139
0r	.	0r	.	2c\]	.	2g/	-ni,
.	.	.	.	2B\	-mi-	2dd\	in
.	.	.	.	2A/	-ne	2cc\	no-
.	.	.	.	[2d\	Do-	2b\	.
=140	=140	=140	=140	=140	=140	=140	=140
0r	.	0r	.	2d\]	.	2a/	-mi-
.	.	.	.	2B\	.	2g/	-ne
.	.	.	.	2A/	.	2.cc\	Do-
.	.	.	.	[2f\	.	.	.
.	.	.	.	.	.	4b\	.
=141	=141	=141	=141	=141	=141	=141	=141
0r	.	0r	.	2f\]	.	2a/	.
.	.	.	.	2e\	.	2g/	.
.	.	.	.	2d\	.	2f/	.
.	.	.	.	2c\	.	2e/	.
=142	=142	=142	=142	=142	=142	=142	=142
0r	.	0r	.	2B\	.	2d/	.
.	.	.	.	2G/	-mi-	2g/	.
.	.	.	.	1A	-ni,	2f/	.
.	.	.	.	.	.	[2a/	.
=143	=143	=143	=143	=143	=143	=143	=143
0r	.	0r	.	2F/	Do-	2a/]	.
.	.	.	.	1G	.	2b\	.
.	.	.	.	.	.	2g/	.
.	.	.	.	2E/	.	[2cc\	.
=144	=144	=144	=144	=144	=144	=144	=144
1r	.	0r	.	1F	.	2cc\]	.
.	.	.	.	.	.	2a/	.
1G	Do-	.	.	2G/	.	2b\	.
.	.	.	.	2B\	.	2g/	.
=145	=145	=145	=145	=145	=145	=145	=145
2F\	.	0r	.	2A/	.	2.a/	.
1A	.	.	.	2c\	.	.	.
.	.	.	.	.	.	4g/	.
.	.	.	.	4B\	.	2e/	.
.	.	.	.	4c\	.	.	.
2D\	.	.	.	2d\	.	2f/	.
=146	=146	=146	=146	=146	=146	=146	=146
2G\	.	0r	.	2B\	.	2d/	.
2C/	.	.	.	2c\	.	1g	.
1D	-mi-	.	.	1A	-mi-	.	.
.	.	.	.	.	.	2f#i/	-mi-
=147	=147	=147	=147	=147	=147	=147	=147
0Gl	-ni.	0r	.	0Gl	-ni.	0gl	-ni.
!!LO:TX:i:Y=40:rj:t=Osanna ut supra
=||	=||	=||	=||	=||	=||	=||	=||
*-	*-	*-	*-	*-	*-	*-	*-
!!!RDF**kern: l=long note in original notation
!!!RDF**kern: i=editorial accidental
!!!RDF**kern: V=start of tuplet marker
!!!RDF**kern: Z=end of tuplet marker
!!!ENC:	Jesse Rodin
!!!END:	<2012///
!!!EED:	Jesse Rodin
!!!EEV:	2012/06/24/
!!!ONB:	Translated from MusicXML and edited on 2012/06/24/ by Craig Sapp
!!muse2ps: T^@{OPR}^u^@{ONM}{. }@{OTL}^C^@{COM}^i2I150v85,85,85,130c80Q16
